!!!!SEGMENT: d-b--slg-bohn-ms-mus-111--001_jarzebski-adam--canzoni-e-concerti-1-concerto-primo.krn
!!!cenid: 16xx:1774
!!!COM: Jarzębski, Adam
!!!COM-rismID: pe30017782
!!!CDT:
!!!CNT:
!!!GTL: Canzoni e Concerti
!!!OTL: 1. Concerto Primo
!!!PDT: 1627
!!!AGN:
!!!SMS-siglum: D-B
!!!SMS-shelfmark: Slg Bohn Ms.mus. 111
!!!SMS-shelfwork: 001 G
!!!SMS-variant:
!!!SMS-altvar:
!!!NIFC-rismSourceID: 1001062014
!!!NIFC-rismChildID: 1001062014
!!!NIFC-islandoraID:
!!!URL-pdf-islandora:
!!!URL-scan: https://digital.staatsbibliothek-berlin.de/werkansicht/?PPN=PPN1049147219
!!!ONB-nifc: UWAGA: Prima vox: s. 5, Seconda vox: s. 65, Basso continuo: s. 165. Uwaga: proszę wpisywać partie tylko występujące w danym koncercie i nazywać partie wg określeń podawanych przy danym utworze. Kody instr. dla humdrumowców podane zostaną na forum.
!!!AIN: 2 empty 1 tenor
!!!key: d
!!!filter-modern: sic -sq | shed -e "s/TX(.*):t=P:/tx$1:t=P:/LG" | shed -e "s/i//" | shed -e "s/^custos:/Xcustos:/I" | shed -k -e "s/LO:N:vis/LO:n:vis:/L" | shed -e "s/:rj/:RJ/L" | shed -e "s/LO:DY:(a|b|rj)/LO:dy:$1/L" | shed -e "s/-//B" | modori -m | tie -s | autostem -r
**kern	**fba	**kern	**kern
*part3	*	*part2	*part1
*	*	*group1	*group1
*staff3	*	*staff2	*staff1
*Iempty	*	*Itenor	*Iempty
*I"Baſſo Continuo.	*	*I"Tenore.	*I"Sopr:
*mI"Basso continuo	*	*mI"Tenore	*mI"Soprano
*I'bc	*	*I'T	*I'S
*clefF4	*	*clefC4	*clefG2
*	*	*mclefGv2	*
*k[]	*	*k[]	*k[]
*d:	*	*d:	*d:
*M2/2	*	*M2/2	*M2/2
*met(c|)	*	*met(c|)	*met(c|)
*mmet(c|)	*	*mmet(c|)	*mmet(c|)
=1-	=1-	=1-	=1-
!!LO:TX:t=P:problem:nie wprowadzamy kodów instrumentów, nie zostały jeszcze ustalone [konsultacja z E.Z.]
!!LO:TX:t=P:problem:4,8,16\right, 2\middle:global
1D	.	00r	1a
=2-	=2-	=2-	=2-
2G\	.	.	2g/
!LO:TX:t=P:problem:korekta wartości	!	!	!
1B-	.	.	[2d/
=3-	=3-	=3-	=3-
.	.	.	8d/L]
.	.	.	8e/
.	.	.	8f/
.	.	.	8g/J
2A\	.	.	8a/L
.	.	.	8b/
.	.	.	8cc/
.	.	.	8a/J
=4-	=4-	=4-	=4-
!LO:TX:t=P:problem:kreska pseudotaktowa	!	!	!
1G	-	.	4.b-X/
.	.	.	8a/
!	!	!	!LO:SIC:s=8b-L
.	.	.	8b-X/L
.	.	.	8a/
.	.	.	8b-/
.	.	.	8cc/J
=5-	=5-	=5-	=5-
1.D	.	1r	1a
=6-	=6-	=6-	=6-
.	.	1A	00r
!LO:TX:t=P:problem:kreska pseudotaktowa	!	!	!
2D/	.	.	.
=7-	=7-	=7-	=7-
2G\	.	2G/	.
!	!	!LO:TX:t=P:problem:kreska pseudotaktowa	!
1B-	.	[2D/	.
=8-	=8-	=8-	=8-
.	.	8D/L]	.
.	.	8E/	.
.	.	8F/	.
.	.	8G/J	.
!LO:TX:t=P:problem:kreska pseudotaktowa	!	!	!
2A\	.	8A\L	.
.	.	8B-Xi\	.
.	.	8c\	.
!	!	!LO:TX:t=P:problem:kreska pseudotaktowa	!
.	.	8A\J	.
=9-	=9-	=9-	=9-
1G	-	4.B-X\	.
.	.	8A/	.
!	!	!LO:SIC:s=8B-L	!
.	.	8B-X\L	.
.	.	8A\	.
.	.	8B-\	.
.	.	8c\J	.
=10-	=10-	=10-	=10-
!LO:TX:t=P:problem:kreska pseudotaktowa	!	!	!
1D	.	1A	1r
=11-	=11-	=11-	=11-
2A\	.	00r	2r
2A\	.	.	2ee\
*custos:D	*	*	*
!LO:LB:g=original	!	!	!
=12-	=12-	=12-	=12-
4D/	.	.	2dd\
4E\	.	.	.
4F\	.	.	[2a/
4G\	.	.	.
=13-	=13-	=13-	=13-
4A\	.	.	8a/L]
.	.	.	8bny/
4F\	.	.	8cc/
.	.	.	8dd/J
2E\	.	.	8ee\L
.	.	.	8ff\
.	.	.	8gg\
.	.	.	8ee\J
*	*	*	*custos:ff
!	!	!	!LO:LB:g=original
=14-	=14-	=14-	=14-
1D	.	.	4.ff\
.	.	.	8ee\
.	.	.	8ff\L
.	.	.	8ee\
.	.	.	8ff\
.	.	.	8gg\J
=15-	=15-	=15-	=15-
0A	.	1r	1ee
=16-	=16-	=16-	=16-
.	.	1e	00r
=17-	=17-	=17-	=17-
4D/	.	2d\	.
4E\	.	.	.
!	!	!LO:TX:t=P:problem:kreska pseudotaktowa	!
4F\	.	[2A/	.
4G\	.	.	.
=18-	=18-	=18-	=18-
4A\	.	8A\L]	.
.	.	8Bny\	.
4F\	.	8c\	.
.	.	8d\J	.
*	*	*custos:e	*
!	!	!LO:LB:g=original	!
2E\	.	8e\L	.
.	.	8f\	.
.	.	8g\	.
.	.	8e\J	.
=19-	=19-	=19-	=19-
!LO:TX:t=P:problem:kreska pseudotaktowa	!	!	!
1D	.	4.f\	.
.	.	8e\	.
.	.	8f\L	.
.	.	8e\	.
.	.	8f\	.
!	!	!LO:TX:t=P:problem:kreska pseudotaktowa	!
.	.	8g\J	.
=20-	=20-	=20-	=20-
0AA	#	1e	1r
=21-	=21-	=21-	=21-
.	.	2r	8a/L
!	!	!	!LO:TX:b:t=P:problem:# below
.	.	.	8cc#X/
.	.	.	8ee/
.	.	.	8a/J
!	!	!	!LO:TX:t=P:problem:kreska pseudotaktowa
.	.	8A\L	2r
.	.	8c#Xi\	.
.	.	8e\	.
!	!	!LO:TX:t=P:problem:kreska pseudotaktowa	!
.	.	8A\J	.
=22-	=22-	=22-	=22-
1AA	.	2r	16a/LL
.	.	.	16b/
!	!	!	!LO:TX:b:t=P:problem:# below
.	.	.	16cc#X/
.	.	.	16dd/JJ
!	!	!	!LO:SIC:s=8eeL
.	.	.	8ee\
!	!	!	!LO:SIC:s=8aJ
.	.	.	8a/
!	!	!	!LO:TX:t=P:problem:kreska pseudotaktowa
.	.	16A\LL	2r
.	.	16B\	.
.	.	16c#Xi\	.
.	.	16d\JJ	.
.	.	8e\L	.
!	!	!LO:TX:t=P:problem:kreska pseudotaktowa	!
.	.	8A\J	.
=23-	=23-	=23-	=23-
0D	#	2r	8dd\L
.	.	.	8ff#Xi\
.	.	.	8aa\
.	.	.	8dd\J
!	!	!	!LO:TX:t=P:problem:kreska pseudotaktowa
.	.	8D/L	2r
!	!	!LO:TX:b:t=P:problem:# below	!
.	.	8F#X/	.
.	.	8A/	.
!	!	!LO:TX:t=P:problem:kreska pseudotaktowa	!
.	.	8D/J	.
=24-	=24-	=24-	=24-
.	.	2r	16dd\LL
.	.	.	16ee\
.	.	.	16ff#Xi\
.	.	.	16gg\JJ
.	.	.	8aa\L
.	.	.	8dd\J
!	!	!	!LO:TX:t=P:problem:kreska pseudotaktowa
.	.	16D/LL	2r
.	.	16E/	.
!	!	!LO:TX:b:t=P:problem:# below	!
.	.	16F#X/	.
.	.	16G/JJ	.
.	.	8A/L	.
!	!	!LO:TX:t=P:problem:kreska pseudotaktowa	!
.	.	8D/J	.
=25-	=25-	=25-	=25-
0AA	#	2r	8a/L
!	!	!	!LO:TX:b:t=P:problem:# below
.	.	.	8cc#X/
.	.	.	8ee/
.	.	.	8a/J
!	!	!	!LO:TX:t=P:problem:kreska pseudotaktowa
.	.	8A\L	2r
.	.	8c#Xi\	.
.	.	8e\	.
!	!	!LO:TX:t=P:problem:kreska pseudotaktowa	!
.	.	8A\J	.
*	*	*custos:A	*custos:a
!	!	!LO:LB:g=original	!LO:LB:g=original
=26-	=26-	=26-	=26-
.	.	2r	16a/LL
.	.	.	16b/
!	!	!	!LO:TX:b:t=P:problem:# below
.	.	.	16cc#X/
.	.	.	16dd/JJ
!	!	!	!LO:TX:t=P:problem:mixed beam
.	.	.	8ee\L
.	.	.	8a/J
!	!	!	!LO:TX:t=P:problem:kreska pseudotaktowa
.	.	16A\LL	2r
.	.	16B\	.
.	.	16c#Xi\	.
.	.	16d\JJ	.
.	.	8e\L	.
.	.	8A\J	.
=27-	=27-	=27-	=27-
4C/	.	1r	8r
.	.	.	8ee\L
4D/	.	.	8dd\
.	.	.	8ccny\J
4E\	.	.	4b/
!LO:TX:t=P:problem:kreska pseudotaktowa	!	!	!LO:TX:t=P:problem:kreska pseudotaktowa
4F\	.	.	4a/
=28-	=28-	=28-	=28-
0E	.	8r	2b/
.	.	8e\L	.
.	.	8d\	.
.	.	8cny\J	.
.	.	4B\	2r
!	!	!LO:TX:t=P:problem:kreska pseudotaktowa	!
.	.	4A/	.
=29-	=29-	=29-	=29-
.	.	2B\	16e/LL
.	.	.	16f#Xi/
.	.	.	16g#Xi/
.	.	.	16a/
.	.	.	16b/
.	.	.	16cc/JJ
.	.	.	8b/
!	!	!	!LO:TX:t=P:problem:kreska pseudotaktowa
.	.	16E/LL	2r
!	!	!LO:TX:b:t=P:problem:# below	!
.	.	16F#X/	.
!	!	!LO:TX:b:t=P:problem:# below	!
.	.	16G#X/	.
.	.	16A/JJ	.
.	.	16B\LL	.
.	.	16c\J	.
!	!	!LO:TX:t=P:problem:kreska pseudotaktowa	!
.	.	8B\J	.
*custos:AA	*	*	*
!LO:LB:g=original	!	!	!
=30-	=30-	=30-	=30-
1AA	.	1A	1cc#X
=31-	=31-	=31-	=31-
1D	.	00r	2r
.	.	.	2aa\
=32-	=32-	=32-	=32-
4GG/	.	.	2gg\
4AA/	.	.	.
4BB/	.	.	[2dd\
!LO:TX:t=P:problem:kreska pseudotaktowa	!	!	!
4C/	.	.	.
=33-	=33-	=33-	=33-
!	!	!	!LO:TX:t=P:problem:mixed beam
0D	.	.	8dd\L]
.	.	.	8a/
.	.	.	8b/
.	.	.	8cc#Xi/J
.	.	.	8dd\L
.	.	.	8ee\
.	.	.	8ffny\
!	!	!	!LO:TX:t=P:problem:kreska pseudotaktowa
.	.	.	8gg\J
*	*	*	*custos:aa
!	!	!	!LO:LB:g=original
=34-	=34-	=34-	=34-
.	.	.	4aa\
.	.	.	8gg\L
.	.	.	8ff\J
.	.	.	8gg\L
.	.	.	8ff\
.	.	.	8.ff\
.	.	.	16ee\Jk
=35-	=35-	=35-	=35-
!LO:TX:t=P:problem:kreska pseudotaktowa	!	!	!
1AA	.	1r	1ee
=36-	=36-	=36-	=36-
2D/	.	1A	00r
2D/	.	.	.
=37-	=37-	=37-	=37-
4GG/	.	2Gny/	.
4AA/	.	.	.
4BB-X/	.	[2D/	.
!LO:TX:t=P:problem:kreska pseudotaktowa	!	!	!
4C/	.	.	.
=38-	=38-	=38-	=38-
4D/	.	8D/L]	.
.	.	8E/	.
4BB-X/	.	8Fny/	.
.	.	8G/J	.
2AA/	.	8A\L	.
.	.	8B-Xi\	.
.	.	8c\	.
!	!	!LO:TX:t=P:problem:kreska pseudotaktowa	!
.	.	8A\J	.
=39-	=39-	=39-	=39-
!LO:TX:t=P:problem:kreska pseudotaktowa	!	!	!
1GG	-	4.B-X\	.
.	.	8A/	.
!	!	!LO:SIC:s=8B-L	!
.	.	8B-Xi\L	.
.	.	8A\	.
.	.	8B-\	.
.	.	8c\J	.
=40-	=40-	=40-	=40-
2D/	.	1A	2r
2A\	.	.	8ee\L
.	.	.	8ee\
.	.	.	8ee\
!	!	!	!LO:TX:t=P:problem:kreska pseudotaktowa
.	.	.	8ee\J
=41-	=41-	=41-	=41-
2D/	.	1r	8dd\L
.	.	.	8dd\
.	.	.	8dd\
.	.	.	8dd\J
!LO:TX:t=P:problem:kreska pseudotaktowa	!	!	!
2F\	.	.	8a/L
.	.	.	8a/
.	.	.	8a/
.	.	.	8a/J
*	*	*custos:A	*
!	!	!LO:LB:g=original	!
=42-	=42-	=42-	=42-
2A\	.	8A/L	8ccny\L
.	.	8A/	8cc\
.	.	8A/	8cc\
.	.	8A/J	8cc\J
2G\	.	8G/L	8b/L
.	.	8G/	8b/
.	.	8G/	8b/
!	!	!LO:TX:t=P:problem:kreska pseudotaktowa	!LO:TX:t=P:problem:kreska pseudotaktowa
.	.	8G/J	8b/J
=43-	=43-	=43-	=43-
!LO:TX:t=P:problem:kreska pseudotaktowa	!	!	!
1D	.	8D/L	1a
.	.	8D/	.
.	.	8D/	.
.	.	8D/J	.
.	.	8F/L	.
.	.	8F/	.
.	.	8F/	.
!	!	!LO:TX:t=P:problem:kreska pseudotaktowa	!
.	.	8F/J	.
*custos:AA	*	*	*
!LO:LB:g=original	!	!	!
=44-	=44-	=44-	=44-
2AA/	.	8E/L	2r
.	.	8E/	.
.	.	8E/	.
.	.	8E/J	.
2D/	.	2D/	8aa\L
.	.	.	8aa\
.	.	.	8aa\
!	!	!	!LO:TX:t=P:problem:kreska pseudotaktowa
.	.	.	8aa\J
=45-	=45-	=45-	=45-
2GG/	.	1r	8gg\L
.	.	.	8gg\
.	.	.	8gg\
!	!	!	!LO:TX:t=P:problem:kreska pseudotaktowa
.	.	.	8gg\J
*	*	*	*custos:dd
!	!	!	!LO:LB:g=original
2BB-X/	.	.	8dd\L
.	.	.	8dd\
.	.	.	8dd\
!	!	!	!LO:TX:t=P:problem:kreska pseudotaktowa
.	.	.	8dd\J
=46-	=46-	=46-	=46-
2D/	.	8d\L	8ff\L
.	.	8d\	8ff\
.	.	8d\	8ff\
.	.	8d\J	8ff\J
2C/	.	8c\L	8ee\L
.	.	8c\	8ee\
.	.	8c\	8ee\
!	!	!LO:TX:t=P:problem:kreska pseudotaktowa	!
.	.	8c\J	8ee\J
=47-	=47-	=47-	=47-
!LO:TX:t=P:problem:kreska pseudotaktowa	!	!	!
1G	-	8G/L	1dd
.	.	8G/	.
.	.	8G/	.
.	.	8G/J	.
.	.	8B-X\L	.
.	.	8B-\	.
.	.	8B-\	.
!	!	!LO:TX:t=P:problem:kreska pseudotaktowa	!
.	.	8B-\J	.
=48-	=48-	=48-	=48-
2D/	.	8A/L	1r
.	.	8A/	.
.	.	8A/	.
.	.	8A/J	.
2GG/	.	2G/	.
*	*	*custos:G	*
!	!	!LO:LB:g=original	!
=49-	=49-	=49-	=49-
2D/	.	2r	8r
.	.	.	8dd\L
.	.	.	8ee\
.	.	.	8ff#Xi\J
!LO:TX:t=P:problem:kreska pseudotaktowa	!	!	!LO:TX:t=P:problem:kreska pseudotaktowa
2GG/	.	8r	2gg\
.	.	8G/L	.
.	.	8A/	.
!	!	!LO:TX:t=P:problem:kreska pseudotaktowa	!
.	.	8Bny/J	.
=50-	=50-	=50-	=50-
1C	.	2c\	8r
.	.	.	16cc\LL
.	.	.	16dd\J
.	.	.	8ee\
.	.	.	8ffny\J
!	!	!	!LO:TX:t=P:problem:kreska pseudotaktowa
.	.	8r	2gg\
.	.	16c\LL	.
.	.	16d\J	.
.	.	8e\	.
!	!	!LO:TX:t=P:problem:kreska pseudotaktowa	!
.	.	8f\J	.
=51-	=51-	=51-	=51-
!LO:TX:t=P:problem:kreska pseudotaktowa	!	!	!
1G	.	2g\	8r
.	.	.	16gny/LL
.	.	.	16a/J
.	.	.	8b/
.	.	.	8cc/J
!	!	!	!LO:TX:t=P:problem:kreska pseudotaktowa
.	.	8r	2dd\
.	.	16G/LL	.
.	.	16A/J	.
.	.	8B/	.
!	!	!LO:TX:t=P:problem:kreska pseudotaktowa	!
.	.	8c/J	.
=52-	=52-	=52-	=52-
1D	.	2d\	8r
.	.	.	16dd\LL
.	.	.	16ee\J
.	.	.	8ff\
.	.	.	8gg\J
!	!	!	!LO:TX:t=P:problem:kreska pseudotaktowa
.	.	8r	2aa\
.	.	16D/LL	.
.	.	16E/J	.
.	.	8F/	.
!	!	!LO:TX:t=P:problem:kreska pseudotaktowa	!
.	.	8G/J	.
*	*	*	*custos:a
!	!	!	!LO:LB:g=original
=53-	=53-	=53-	=53-
!LO:TX:t=P:problem:kreska pseudotaktowa	!	!	!
1A	.	2A/	8r
.	.	.	16a/LL
.	.	.	16b/J
.	.	.	8cc/
.	.	.	8dd/J
!	!	!	!LO:TX:t=P:problem:kreska pseudotaktowa
.	.	8r	2ee\
.	.	16A\LL	.
.	.	16B\J	.
.	.	8c\	.
!	!	!LO:TX:t=P:problem:kreska pseudotaktowa	!
.	.	8d\J	.
=54-	=54-	=54-	=54-
0E	.	2e\	8r
.	.	.	8ee\L
.	.	.	8b\
.	.	.	8cc\J
!	!	!	!LO:TX:t=P:problem:kreska pseudotaktowa
.	.	8r	2b/
.	.	8e\L	.
.	.	8B\	.
!	!	!LO:TX:t=P:problem:kreska pseudotaktowa	!
.	.	8c\J	.
=55-	=55-	=55-	=55-
.	.	2B\	8r
.	.	.	8ee\L
.	.	.	8dd\
.	.	.	8cc\J
.	.	8r	8b/L
.	.	8e\L	8cc/
.	.	8d\	8b/
!	!	!LO:TX:t=P:problem:kreska pseudotaktowa	!LO:TX:t=P:problem:kreska pseudotaktowa
.	.	8c\J	8a/J
=56-	=56-	=56-	=56-
!	!	!	!LO:TX:t=P:problem:mixed beam
1E	.	8B\L	8g#X/L
.	.	8c\	8ee\
.	.	8B\	8dd\
.	.	8A\J	8cc\J
*	*	*custos:A	*
!	!	!LO:LB:g=original	!
.	.	4A/	4b/
!	!	!	!LO:TX:t=P:problem:kreska pseudotaktowa
.	.	4G#X/	4b/
=57-	=57-	=57-	=57-
!LO:TX:t=P:problem:kreska pseudotaktowa	!	!	!
1AA	.	1A	2a/
.	.	.	2.ee\
*custos:AA	*	*	*
!LO:LB:g=original	!	!	!
=58-	=58-	=58-	=58-
2AA/	.	2r	.
.	.	.	4dd\
2.A\	.	2.A/	4cc\
!	!	!	!LO:TX:t=P:problem:kreska pseudotaktowa
.	.	.	4b/
=59-	=59-	=59-	=59-
.	.	.	2a/
4G\	.	4Gny/	.
4F\	.	4F/	2aa\
!	!	!LO:TX:t=P:problem:kreska pseudotaktowa	!
4E\	.	4E/	.
=60-	=60-	=60-	=60-
1.D	.	2D/	4aa\
.	.	.	4gg\
.	.	1d	4ff\
!	!	!	!LO:TX:t=P:problem:kreska pseudotaktowa
.	.	.	4ee\
=61-	=61-	=61-	=61-
.	.	.	2dd\
!LO:TX:t=P:problem:kreska pseudotaktowa	!	!LO:TX:t=P:problem:kreska pseudotaktowa	!
2C#X/	.	2c#X\	2ee\
*	*	*	*custos:ff
!	!	!	!LO:LB:g=original
=62-	=62-	=62-	=62-
0D	.	4d\	4ff\
.	.	4e\	4gg\
.	.	4f\	4aa\
.	.	4e\	4gg\
=63-	=63-	=63-	=63-
.	.	4d\	4ff\
!	!	!	!LO:TX:t=P:problem:korekta dźwięku
.	.	4A/	4dd\
.	.	1d	2ff\
=64-	=64-	=64-	=64-
!LO:SIC:s=[1AA	!	!	!LO:SIC:s=[1ee
[1AAl;;	.	.	[1eel;;
.	.	4c#X\	.
.	.	4B\	.
=65-	=65-	=65-	=65-
!LO:SIC:s=1AA];	!	!LO:SIC:s=1c#;	!LO:SIC:s=1ee];
1AA]	.	1c#Xl;;	1ee]
==	==	==	==
*-	*-	*-	*-
!!!system-decoration: [(g1)]s3
!!!RDF**kern: > = above
!!!RDF**kern: < = below
!!!RDF**kern: i = editorial accidental
!!LO:MO:ori
!!!RDF**kern: l = terminal long
!!LO:MO:end
!!!ENC: Anastazja Marusiak
!!!END: 2022-10-29
!!!ENC: Katarzyna Serwa
!!!END: 2022-11-09
!!!YEC: Copyright 2022 Narodowy Instytut Fryderyka Chopina (https://polishscores.org)
!!!YEM: License CC-BY-4.0 (https://creativecommons.org/licenses/by/4.0)
!!!ENC-modern: Andrzej Borzym
!!!END-modern: 2022-11-28
